X:1
T: Princess Margaret's Jig
C:
R:Jig
Q:180
K:F
M:6/8
L:1/16
C2|:F4G2 A2G2F2|E4G2 B4d2|c4A2 f2e2f2|a2g2e2 c4c2|d4B2 f2e2d2|
c4f2 A4c2|1B4A2 G4F2|E4G2 c4C2:|2B4G2 c2d2e2|f6f4f2|
e4f2 g2e2c2|f4g2 a6|b4g2 a4f2|g4f2 e2d2c2|
B4c2 d2c2B2|A4B2 c6|=B4G2 g4f2|e2f2e2 d2c2B2|
A4B2 c2A2F2|B4c2 d6|=B4c2 d2B2G2|c4d2 e6|
f2e2f2 c2B2A2|d2^c2d2 B2A2G2|c2e2g2 b2g2e2|f6f4||
